X:45
T:Liz Carroll's
C:Liz Carroll
D:Paddy O'Brien/Stranger at The gate
R:Reel
K:A
M:4/4
L:1/8
Q:1/4=180
BFBc dBFE|DB,G,B, A,B,CE|FBBc defg|aefd cAec|BFBc dBFE|DEFG AECE|DA,DF
AECA|EDCE DB,B,2:|
|:BcdB bBgB|fBfb fBBA|Bcde aAfA|eAea eAAA|BFBc dBFB|defg aece|dAfd
cAec|EDCE DB,B,2:|
